X:951
T:Owen Malone
N:"Collected by Dunlap"
B:O'Neill's 951
Z:Transcribed by Dan G. Petersen, dangp@post6.tele.dk
M:6/8
L:1/8
K:G
B/c/|dBG Gge|dBG Gge|dcB dcB|ABA BABc|
dBG Gge|dBG Gge|def gdB|GAG G2:|
Bdd Add|gag f2d|Bdd Add|gec dec|
Bdd Add|gag f2e|def gdB|GAG G2:|
